X:344
T:La fille des sables
C:trad.
N:Chanson pour ramer
A:Vendée
O:France
Z:S. Piron
M:6/8
L:1/8
Q:1/8=210
K:G
DGA B2 A/2B/2|c3B3|B2GB2G|GFG A2 A/2G/2|G6|
G3 z2 G|B2AB2c|B6|dcB ABA|G3G z B/2c/2|
|d2cA2G|B3B z B/2c/2|d2c A2G|B6||
W:
W:Dans la ville des sables
W:Vogue, vogue, marinier vogue
W:Y a-t-un' fille à marier
W:Vogue beau marinier
W:Y a-t-un' fille à marier
W:Y a-t-un' fille à marier
W:
W:Elle est là qui écoute
W:Le marinier chanter
W:
W:Oh marinier qui chanter
W:Apprends-moi z'à chanter
W:
W:Entrez belle dans ma barque
W:Et je vous l'apprendrai
W:
W:Quand la belle est entrée
W:Au large il a poussé
W:
W:De frayeur de tristesse
W:Elle se mit à pleurer
W:
W:Oh qu'avez-vous la belle
W:Qu'avez-vous à pleurer
W:
W:J'entends, j'entends mon père
W:M'appeler pour souper
W:
W:Ne pleurez pas la belle
W:Avec moi vous soup'rez
W:
W:J'entends, j'entends ma mère
W:M'appeler pour coucher
W:
W:Ne pleurez pas la belle
W:Avec moi vous couch'rez
W:
W:L'ont bien fait cent lieues d'aive
W:Sans rire et sans parler
W:
W:Au bout de cent lieues d'aive
W:La belle s'mit à parler
W:
W:Ah c'est-y pas Paris
W:Ou versailles que je voués ?
W:
W:C'est l'chateau de mon père
W:La belle que vous voyez
W:
W:Nous y couch'rons ensemble
W:Le soir après souper
W:
W:Quand elle fût dans la chambre
W:Son lacet a noué
W:
W:Mob épée sur la table
W:Belle pourra le couper
W:
W:La belle a pris l'épée
W:Dans l'coeur se l'est plongée
W:
W:Maudite soit l'épée
W:Celui qui l'a forgée
W:
W:Sans la maudite épée
W:Je serais marié
W:
W:Avec la plus belle fille
W:Qu'y est à l'évêché
W:
W:Elle était aussi droite
W:Que le jonc dans le pré
W:
W:L'était aussi vermeille
W:Que la rose du rosier

